assets/images/logobis.svg

<svg xmlns="http://www.w3.org/2000/svg" style="isolation:isolate" viewBox="0 0 169 169" width="169pt" height="169pt"><defs><clipPath id="a"><path d="M0 0h169v169H0z"/></clipPath></defs><g style="isolation:isolate" clip-path="url(#a)"><path d="M159.744 136.462c8.066-14.252 11.014-32.934 8.239-54.686-5.545-43.28-27.416-73.16-58.991-80.4-2.571-.597-6.859-1.01-11.599-1.212a70.515 70.515 0 0 0-5.878-.156C85.818-.041 80.23.201 76.802.76 63.105 3.033 50.013 8.767 38.624 16.941 21.495 28.674 8.304 45.738 2.223 65.438.722 70.34.193 73.491.051 79.938c-.05.922-.063 1.851-.038 2.827-.003.631-.005 1.277-.005 1.954 0 16.197 3.178 26.513 12.135 40.589 5.201 8.194 18.491 21.595 27.063 27.283 18.877 12.437 40.932 18.029 63.468 16.004 28.144-2.453 46.813-12.896 57.07-32.133Z" fill="#84C188"/><path d="M87.272 117.373v8.234q0 2.182.862 2.182.825 0 1.21-.559t.385-2.026h1.925q.019.238.019.751 0 1.651-.825 2.861-1.009 1.54-3.21 1.54-1.43 0-2.438-.806-1.009-.807-1.394-2.128-2.659 2.934-6.73 2.934-2.237 0-3.897-1.311-1.659-1.311-1.659-3.658 0-4.071 6.014-6.015 3.815-1.21 4.566-1.678.752-.467.982-.953.229-.486.229-1.091 0-1.082-1.064-1.807-1.063-.724-2.769-.724-1.705 0-3.007.917.917.678.917 1.742t-.706 1.705q-.706.642-1.706.642-.999 0-1.65-.605-.651-.605-.651-1.687 0-2.145 2.164-3.475 2.164-1.329 5.263-1.329 5.538 0 6.766 3.594.404 1.192.404 2.75Zm-8.087 3.668q-1.614.697-2.421 1.788-.807 1.091-.807 2.375 0 1.283.697 1.943.697.661 1.742.661 2.127 0 3.521-1.495 1.394-1.494 1.394-4.172v-2.824q-1.174.605-2.485 1.1-1.311.496-1.641.624Zm19.053 6.803q-.789.752-.789 2.146h-2.714v-23.674q0-1.321-.229-1.724t-1.256-.403h-1.302v-2.018q1.779 0 2.796-.265 1.018-.266 1.449-.386.431-.119.926-.119.972 0 1.275.56.302.559.302 1.787v9.829q1.962-2.548 5.621-2.548 3.658 0 5.813 2.338 2.154 2.338 2.154 6.885 0 4.548-2.246 7.326-2.246 2.778-6.281 2.778-3.319 0-5.519-2.512Zm.366-6.931q0 3.355 1.275 5.299 1.274 1.944 3.457 1.944 2.163 0 3.42-1.999 1.256-1.999 1.256-5.299 0-5.263-2.494-7.005-.899-.606-2.118-.606-1.22 0-2.1.587-.88.587-1.467 1.614-1.229 2.109-1.229 5.465Zm16.559 9.077v-2.017q1.596 0 2.192-.441.596-.44.596-1.522v-19.859q0-1.321-.23-1.724-.229-.403-1.256-.403h-1.485v-2.018q1.852 0 2.897-.266 1.046-.265 1.495-.385.449-.119.944-.119.954 0 1.275.55.321.55.321 1.797v22.427q0 1.137.486 1.55.486.413 2.264.413v2.017h-9.499Zm28.332-12.617v8.234q0 2.182.862 2.182.825 0 1.21-.559t.385-2.026h1.926q.018.238.018.751 0 1.651-.825 2.861-1.009 1.54-3.209 1.54-1.43 0-2.439-.806-1.009-.807-1.394-2.128-2.659 2.934-6.73 2.934-2.237 0-3.896-1.311-1.66-1.311-1.66-3.658 0-4.071 6.015-6.015 3.814-1.21 4.566-1.678.752-.467.981-.953.229-.486.229-1.091 0-1.082-1.063-1.807-1.064-.724-2.769-.724-1.706 0-3.008.917.917.678.917 1.742t-.706 1.705q-.706.642-1.705.642-1 0-1.651-.605t-.651-1.687q0-2.145 2.164-3.475 2.164-1.329 5.263-1.329 5.538 0 6.767 3.594.403 1.192.403 2.75Zm-8.087 3.668q-1.613.697-2.42 1.788-.807 1.091-.807 2.375 0 1.283.697 1.943.696.661 1.742.661 2.127 0 3.521-1.495 1.393-1.494 1.393-4.172v-2.824q-1.173.605-2.485 1.1-1.311.496-1.641.624Z" fill="#FFF"/></g></svg>

<?xml version="1.0" encoding="UTF-8" standalone="no"?><!-- Generator: Gravit.io --><svg xmlns="http://www.w3.org/2000/svg" xmlns:xlink="http://www.w3.org/1999/xlink" style="isolation:isolate" viewBox="0 0 169 169" width="169pt" height="169pt"><defs><clipPath id="_clipPath_vdXZQybBDtTJgcbhe3wUASmmx9oXoGc6"><rect width="169" height="169"/></clipPath></defs><g clip-path="url(#_clipPath_vdXZQybBDtTJgcbhe3wUASmmx9oXoGc6)"><g style="isolation:isolate"><path d=" M 159.744 136.462 C 167.81 122.21 170.758 103.528 167.983 81.776 C 162.438 38.496 140.567 8.616 108.992 1.376 C 106.421 0.779 102.133 0.366 97.393 0.164 C 95.479 0.031 93.525 -0.02 91.515 0.008 C 85.818 -0.041 80.23 0.201 76.802 0.76 C 63.105 3.033 50.013 8.767 38.624 16.941 C 21.495 28.674 8.304 45.738 2.223 65.438 C 0.722 70.34 0.193 73.491 0.051 79.938 C 0.001 80.86 -0.012 81.789 0.013 82.765 C 0.01 83.396 0.008 84.042 0.008 84.719 C 0.008 100.916 3.186 111.232 12.143 125.308 C 17.344 133.502 30.634 146.903 39.206 152.591 C 58.083 165.028 80.138 170.62 102.674 168.595 C 130.818 166.142 149.487 155.699 159.744 136.462 Z " fill="rgb(132,193,136)"/><path d=" M 87.272 117.373 L 87.272 125.607 L 87.272 125.607 Q 87.272 127.789 88.134 127.789 L 88.134 127.789 L 88.134 127.789 Q 88.959 127.789 89.344 127.23 L 89.344 127.23 L 89.344 127.23 Q 89.729 126.671 89.729 125.204 L 89.729 125.204 L 91.654 125.204 L 91.654 125.204 Q 91.673 125.442 91.673 125.955 L 91.673 125.955 L 91.673 125.955 Q 91.673 127.606 90.848 128.816 L 90.848 128.816 L 90.848 128.816 Q 89.839 130.356 87.638 130.356 L 87.638 130.356 L 87.638 130.356 Q 86.208 130.356 85.2 129.55 L 85.2 129.55 L 85.2 129.55 Q 84.191 128.743 83.806 127.422 L 83.806 127.422 L 83.806 127.422 Q 81.147 130.356 77.076 130.356 L 77.076 130.356 L 77.076 130.356 Q 74.839 130.356 73.179 129.045 L 73.179 129.045 L 73.179 129.045 Q 71.52 127.734 71.52 125.387 L 71.52 125.387 L 71.52 125.387 Q 71.52 121.316 77.534 119.372 L 77.534 119.372 L 77.534 119.372 Q 81.349 118.162 82.1 117.694 L 82.1 117.694 L 82.1 117.694 Q 82.852 117.227 83.082 116.741 L 83.082 116.741 L 83.082 116.741 Q 83.311 116.255 83.311 115.65 L 83.311 115.65 L 83.311 115.65 Q 83.311 114.568 82.247 113.843 L 82.247 113.843 L 82.247 113.843 Q 81.184 113.119 79.478 113.119 L 79.478 113.119 L 79.478 113.119 Q 77.773 113.119 76.471 114.036 L 76.471 114.036 L 76.471 114.036 Q 77.388 114.714 77.388 115.778 L 77.388 115.778 L 77.388 115.778 Q 77.388 116.842 76.682 117.483 L 76.682 117.483 L 76.682 117.483 Q 75.976 118.125 74.976 118.125 L 74.976 118.125 L 74.976 118.125 Q 73.977 118.125 73.326 117.52 L 73.326 117.52 L 73.326 117.52 Q 72.675 116.915 72.675 115.833 L 72.675 115.833 L 72.675 115.833 Q 72.675 113.688 74.839 112.358 L 74.839 112.358 L 74.839 112.358 Q 77.003 111.029 80.102 111.029 L 80.102 111.029 L 80.102 111.029 Q 85.64 111.029 86.868 114.623 L 86.868 114.623 L 86.868 114.623 Q 87.272 115.815 87.272 117.373 L 87.272 117.373 L 87.272 117.373 Z  M 79.185 121.041 L 79.185 121.041 Q 77.571 121.738 76.764 122.829 L 76.764 122.829 L 76.764 122.829 Q 75.957 123.92 75.957 125.204 L 75.957 125.204 L 75.957 125.204 Q 75.957 126.487 76.654 127.147 L 76.654 127.147 L 76.654 127.147 Q 77.351 127.808 78.396 127.808 L 78.396 127.808 L 78.396 127.808 Q 80.523 127.808 81.917 126.313 L 81.917 126.313 L 81.917 126.313 Q 83.311 124.819 83.311 122.141 L 83.311 122.141 L 83.311 119.317 L 83.311 119.317 Q 82.137 119.922 80.826 120.417 L 80.826 120.417 L 80.826 120.417 Q 79.515 120.913 79.185 121.041 L 79.185 121.041 L 79.185 121.041 Z  M 98.238 127.844 L 98.238 127.844 L 98.238 127.844 Q 97.449 128.596 97.449 129.99 L 97.449 129.99 L 94.735 129.99 L 94.735 106.316 L 94.735 106.316 Q 94.735 104.995 94.506 104.592 L 94.506 104.592 L 94.506 104.592 Q 94.277 104.189 93.25 104.189 L 93.25 104.189 L 91.948 104.189 L 91.948 102.171 L 91.948 102.171 Q 93.727 102.171 94.744 101.906 L 94.744 101.906 L 94.744 101.906 Q 95.762 101.64 96.193 101.52 L 96.193 101.52 L 96.193 101.52 Q 96.624 101.401 97.119 101.401 L 97.119 101.401 L 97.119 101.401 Q 98.091 101.401 98.394 101.961 L 98.394 101.961 L 98.394 101.961 Q 98.696 102.52 98.696 103.748 L 98.696 103.748 L 98.696 113.577 L 98.696 113.577 Q 100.658 111.029 104.317 111.029 L 104.317 111.029 L 104.317 111.029 Q 107.975 111.029 110.13 113.367 L 110.13 113.367 L 110.13 113.367 Q 112.284 115.705 112.284 120.252 L 112.284 120.252 L 112.284 120.252 Q 112.284 124.8 110.038 127.578 L 110.038 127.578 L 110.038 127.578 Q 107.792 130.356 103.757 130.356 L 103.757 130.356 L 103.757 130.356 Q 100.438 130.356 98.238 127.844 Z  M 98.604 120.913 L 98.604 120.913 L 98.604 120.913 Q 98.604 124.268 99.879 126.212 L 99.879 126.212 L 99.879 126.212 Q 101.153 128.156 103.336 128.156 L 103.336 128.156 L 103.336 128.156 Q 105.499 128.156 106.756 126.157 L 106.756 126.157 L 106.756 126.157 Q 108.012 124.158 108.012 120.858 L 108.012 120.858 L 108.012 120.858 Q 108.012 115.595 105.518 113.853 L 105.518 113.853 L 105.518 113.853 Q 104.619 113.247 103.4 113.247 L 103.4 113.247 L 103.4 113.247 Q 102.18 113.247 101.3 113.834 L 101.3 113.834 L 101.3 113.834 Q 100.42 114.421 99.833 115.448 L 99.833 115.448 L 99.833 115.448 Q 98.604 117.557 98.604 120.913 Z  M 115.163 129.99 L 115.163 127.973 L 115.163 127.973 Q 116.759 127.973 117.355 127.532 L 117.355 127.532 L 117.355 127.532 Q 117.951 127.092 117.951 126.01 L 117.951 126.01 L 117.951 106.151 L 117.951 106.151 Q 117.951 104.83 117.721 104.427 L 117.721 104.427 L 117.721 104.427 Q 117.492 104.024 116.465 104.024 L 116.465 104.024 L 114.98 104.024 L 114.98 102.006 L 114.98 102.006 Q 116.832 102.006 117.877 101.74 L 117.877 101.74 L 117.877 101.74 Q 118.923 101.475 119.372 101.355 L 119.372 101.355 L 119.372 101.355 Q 119.821 101.236 120.316 101.236 L 120.316 101.236 L 120.316 101.236 Q 121.27 101.236 121.591 101.786 L 121.591 101.786 L 121.591 101.786 Q 121.912 102.336 121.912 103.583 L 121.912 103.583 L 121.912 126.01 L 121.912 126.01 Q 121.912 127.147 122.398 127.56 L 122.398 127.56 L 122.398 127.56 Q 122.884 127.973 124.662 127.973 L 124.662 127.973 L 124.662 129.99 L 115.163 129.99 L 115.163 129.99 Z  M 143.495 117.373 L 143.495 125.607 L 143.495 125.607 Q 143.495 127.789 144.357 127.789 L 144.357 127.789 L 144.357 127.789 Q 145.182 127.789 145.567 127.23 L 145.567 127.23 L 145.567 127.23 Q 145.952 126.671 145.952 125.204 L 145.952 125.204 L 147.878 125.204 L 147.878 125.204 Q 147.896 125.442 147.896 125.955 L 147.896 125.955 L 147.896 125.955 Q 147.896 127.606 147.071 128.816 L 147.071 128.816 L 147.071 128.816 Q 146.062 130.356 143.862 130.356 L 143.862 130.356 L 143.862 130.356 Q 142.432 130.356 141.423 129.55 L 141.423 129.55 L 141.423 129.55 Q 140.414 128.743 140.029 127.422 L 140.029 127.422 L 140.029 127.422 Q 137.37 130.356 133.299 130.356 L 133.299 130.356 L 133.299 130.356 Q 131.062 130.356 129.403 129.045 L 129.403 129.045 L 129.403 129.045 Q 127.743 127.734 127.743 125.387 L 127.743 125.387 L 127.743 125.387 Q 127.743 121.316 133.758 119.372 L 133.758 119.372 L 133.758 119.372 Q 137.572 118.162 138.324 117.694 L 138.324 117.694 L 138.324 117.694 Q 139.076 117.227 139.305 116.741 L 139.305 116.741 L 139.305 116.741 Q 139.534 116.255 139.534 115.65 L 139.534 115.65 L 139.534 115.65 Q 139.534 114.568 138.471 113.843 L 138.471 113.843 L 138.471 113.843 Q 137.407 113.119 135.702 113.119 L 135.702 113.119 L 135.702 113.119 Q 133.996 113.119 132.694 114.036 L 132.694 114.036 L 132.694 114.036 Q 133.611 114.714 133.611 115.778 L 133.611 115.778 L 133.611 115.778 Q 133.611 116.842 132.905 117.483 L 132.905 117.483 L 132.905 117.483 Q 132.199 118.125 131.2 118.125 L 131.2 118.125 L 131.2 118.125 Q 130.2 118.125 129.549 117.52 L 129.549 117.52 L 129.549 117.52 Q 128.898 116.915 128.898 115.833 L 128.898 115.833 L 128.898 115.833 Q 128.898 113.688 131.062 112.358 L 131.062 112.358 L 131.062 112.358 Q 133.226 111.029 136.325 111.029 L 136.325 111.029 L 136.325 111.029 Q 141.863 111.029 143.092 114.623 L 143.092 114.623 L 143.092 114.623 Q 143.495 115.815 143.495 117.373 L 143.495 117.373 L 143.495 117.373 Z  M 135.408 121.041 L 135.408 121.041 Q 133.795 121.738 132.988 122.829 L 132.988 122.829 L 132.988 122.829 Q 132.181 123.92 132.181 125.204 L 132.181 125.204 L 132.181 125.204 Q 132.181 126.487 132.878 127.147 L 132.878 127.147 L 132.878 127.147 Q 133.574 127.808 134.62 127.808 L 134.62 127.808 L 134.62 127.808 Q 136.747 127.808 138.141 126.313 L 138.141 126.313 L 138.141 126.313 Q 139.534 124.819 139.534 122.141 L 139.534 122.141 L 139.534 119.317 L 139.534 119.317 Q 138.361 119.922 137.049 120.417 L 137.049 120.417 L 137.049 120.417 Q 135.738 120.913 135.408 121.041 L 135.408 121.041 L 135.408 121.041 Z " fill="rgb(255,255,255)"/></g></g></svg>
